X: 122128
T: Lamascally Mill
C: Joe Liddy
Z: BB
N: No repeats
S: "The Leitrim Fiddler" (Dublin 1981)
L: 1/8
M: 4/4
R: reel
Q: 1/4 = 180
K: D
ga | fded fded | dcAB cAFG | Adde fded | cdef g2 ag |
fded fdec | dcAG FGAB | cdef geag | agec d2 de ||
fdec dcAB | cAGE FDFG | ABcA dcAB | cdef g2 ag | 
fded fdef | dcAB cAFG | Adfd gefg | agec d2 fg |
a2 af dfaf | bfaf gfed | cAef gfed | ceAB cdeg |
fgaf dfaf | bfaf gfed | cAef geag | agec d2 fg |
abaf dfaf | gfed ceAB | cAef gfed | ceAB cdeg |
fdad bfaf | gfed cAGA | defd geag | agec d4 ||
%%%%%%%%%%%%%%%%%%%%%
